public/cloud-icons/azure/application/medtech-service.svg

<?xml version="1.0" encoding="UTF-8" standalone="no"?>
<!-- Generated by Microsoft Visio, SVG Export MedTech Service.svg Page-1 -->

<svg
   xmlns:dc="http://purl.org/dc/elements/1.1/"
   xmlns:cc="http://creativecommons.org/ns#"
   xmlns:rdf="http://www.w3.org/1999/02/22-rdf-syntax-ns#"
   xmlns:svg="http://www.w3.org/2000/svg"
   xmlns="http://www.w3.org/2000/svg"
   xmlns:sodipodi="http://sodipodi.sourceforge.net/DTD/sodipodi-0.dtd"
   xmlns:inkscape="http://www.inkscape.org/namespaces/inkscape"
   width="56.694698"
   height="51.0303"
   viewBox="0 0 56.694698 51.030301"
   xml:space="preserve"
   class="st7"
   version="1.1"
   id="svg70"
   sodipodi:docname="MedTech Service.svg"
   style="font-size:12px;overflow:visible;color-interpolation-filters:sRGB;fill:none;fill-rule:evenodd;stroke-linecap:square;stroke-miterlimit:3"
   inkscape:version="0.92.5 (2060ec1f9f, 2020-04-08)"><metadata
   id="metadata74"><rdf:RDF><cc:Work
       rdf:about=""><dc:format>image/svg+xml</dc:format><dc:type
         rdf:resource="http://purl.org/dc/dcmitype/StillImage" /></cc:Work></rdf:RDF></metadata><sodipodi:namedview
   pagecolor="#ffffff"
   bordercolor="#666666"
   borderopacity="1"
   objecttolerance="10"
   gridtolerance="10"
   guidetolerance="10"
   inkscape:pageopacity="0"
   inkscape:pageshadow="2"
   inkscape:window-width="640"
   inkscape:window-height="480"
   id="namedview72"
   showgrid="false"
   inkscape:zoom="1.982427"
   inkscape:cx="28.3465"
   inkscape:cy="25.511301"
   inkscape:window-x="0"
   inkscape:window-y="0"
   inkscape:window-maximized="0"
   inkscape:current-layer="svg70" />
	<style
   type="text/css"
   id="style2">
	<![CDATA[
		.st1 {fill:#0078d4;stroke:none;stroke-linecap:butt;stroke-width:34}
		.st2 {fill:#005ba1;stroke:none;stroke-linecap:butt;stroke-width:34}
		.st3 {fill:url(#grad0-12);stroke:none;stroke-linecap:butt;stroke-width:34}
		.st4 {fill:url(#grad0-18);stroke:none;stroke-linecap:butt;stroke-width:34}
		.st5 {fill:#ffffff;stroke:none;stroke-linecap:butt;stroke-width:34}
		.st6 {fill:url(#grad0-24);stroke:none;stroke-linecap:butt;stroke-width:34}
		.st7 {fill:none;fill-rule:evenodd;font-size:12px;overflow:visible;stroke-linecap:square;stroke-miterlimit:3}
	]]>
	</style>

	<defs
   id="Patterns_And_Gradients">
		<linearGradient
   id="grad0-12"
   x1="-2.3898223e-05"
   y1="86.811468"
   x2="27.88061"
   y2="86.811468"
   gradientTransform="scale(0.96339439,1.0379965)"
   gradientUnits="userSpaceOnUse">
			<stop
   offset="0"
   stop-color="#0078d4"
   stop-opacity="1"
   id="stop4" />
			<stop
   offset="1"
   stop-color="#5ea0ef"
   stop-opacity="1"
   id="stop6" />
		</linearGradient>
		<linearGradient
   id="grad0-18"
   x1="0.033777112"
   y1="111.61426"
   x2="10.289393"
   y2="111.61426"
   gradientTransform="scale(1.0236865,0.97686156)"
   gradientUnits="userSpaceOnUse">
			<stop
   offset="0"
   stop-color="#f78d1e"
   stop-opacity="1"
   id="stop9" />
			<stop
   offset="1"
   stop-color="#faa21d"
   stop-opacity="1"
   id="stop11" />
		</linearGradient>
		<linearGradient
   id="grad0-24"
   x1="0"
   y1="84.966076"
   x2="41.036779"
   y2="84.966076"
   gradientTransform="scale(1.0583189,0.94489476)"
   gradientUnits="userSpaceOnUse">
			<stop
   offset="0.225"
   stop-color="#5ea0ef"
   stop-opacity="1"
   id="stop14" />
			<stop
   offset="1"
   stop-color="#0078d4"
   stop-opacity="1"
   id="stop16" />
		</linearGradient>
	</defs>
	<g
   id="g68"
   transform="translate(-34,-34.004)">
		<title
   id="title20">Page-1</title>
		<g
   id="group14896-1"
   transform="translate(34,-34.0157)">
			<title
   id="title22">MedTech Service.14896</title>
			<g
   id="group14897-2">
				<title
   id="title24">Sheet.14897</title>
				<g
   id="shape14898-3"
   transform="translate(54.4947,-17.0577)">
					<title
   id="title26">Sheet.14898</title>
					<path
   d="m 0,118.28 a 0.754737,0.760721 -180 0 0 0.754719,0.7607 L 1.44,119.05 a 0.754737,0.760721 -180 0 0 0.754719,-0.7607 L 2.2,108.22 A 0.754737,0.760721 -180 0 0 1.445281,107.4593 L 0.75,107.46 a 0.754737,0.760721 -180 0 0 -0.754719,0.7607 z"
   class="st1"
   id="path28"
   inkscape:connector-curvature="0"
   style="fill:#0078d4;stroke:none;stroke-width:34;stroke-linecap:butt" />
				</g>
				<g
   id="shape14899-5"
   transform="translate(54.4947,-10.7063)">
					<title
   id="title31">Sheet.14899</title>
					<path
   d="m 0,118.28 a 0.754737,0.760721 -180 0 0 0.754719,0.7607 L 1.44,119.05 a 0.754737,0.760721 -180 0 0 0.754719,-0.7607 L 2.2,115.64 A 0.754737,0.760721 -180 0 0 1.445281,114.8793 L 0.75,114.88 a 0.754737,0.760721 -180 0 0 -0.754719,0.7607 z"
   class="st1"
   id="path33"
   inkscape:connector-curvature="0"
   style="fill:#0078d4;stroke:none;stroke-width:34;stroke-linecap:butt" />
				</g>
				<g
   id="shape14900-7"
   transform="translate(32.7594)">
					<title
   id="title36">Sheet.14900</title>
					<path
   d="m 0.55,82.46 h 17.01 a 0.533906,0.53814 0 0 1 0.533906,0.53814 L 18.09,86.99 H 0.01 V 83 a 0.533906,0.53814 0 0 1 0.533906,-0.53814 z m -0.54,32.18 h 18.08 v 3.87 a 0.527315,0.531496 0 0 1 -0.527315,0.5315 L 0.53,119.05 A 0.527315,0.531496 0 0 1 0.002685,118.5185 L 0,114.64 Z"
   class="st2"
   id="path38"
   inkscape:connector-curvature="0"
   style="fill:#005ba1;stroke:none;stroke-width:34;stroke-linecap:butt" />
				</g>
				<g
   id="shape14901-9"
   transform="translate(28.3959,-4.40477)">
					<title
   id="title41">Sheet.14901</title>
					<path
   d="m 0,117.81 a 1.22274,1.23244 -180 0 0 1.22,1.24 h 24.42 a 1.22274,1.23244 -180 0 0 1.22,-1.24 V 91.34 A 1.22274,1.23244 -180 0 0 25.64,90.11 H 1.22 A 1.22274,1.23244 -180 0 0 0,91.34 Z"
   class="st3"
   id="path43"
   inkscape:connector-curvature="0"
   style="fill:url(#grad0-12);stroke:none;stroke-width:34;stroke-linecap:butt" />
				</g>
				<g
   id="shape14902-13"
   transform="translate(30.7556,-6.79983)">
					<title
   id="title46">Sheet.14902</title>
					<path
   d="m 0,118.02 a 1.0217,1.0298 -180 0 0 1.02,1.03 h 20.36 a 1.0217,1.0298 -180 0 0 1.02,-1.03 V 95.92 A 1.0217,1.0298 -180 0 0 21.38,94.89 H 1.02 A 1.0217,1.0298 -180 0 0 0,95.92 Z"
   class="st2"
   id="path48"
   inkscape:connector-curvature="0"
   style="fill:#005ba1;stroke:none;stroke-width:34;stroke-linecap:butt" />
				</g>
				<g
   id="shape14903-15"
   transform="translate(36.6714,-19.4195)">
					<title
   id="title51">Sheet.14903</title>
					<path
   d="m 7.98,109.04 a 2.63657,2.65748 -180 0 0 -2.7,1.78 2.63657,2.65748 -180 0 0 -2.72,-1.77 c -2.44,0.21 -2.56,2.64 -2.52,3.57 0.03,0.67 0.16,2.76 5.21,6.4 l 0.05,0.03 0.04,-0.04 c 5.05,-3.65 5.17,-5.8 5.19,-6.49 0.03,-0.9 -0.11,-3.3 -2.55,-3.48 z"
   class="st4"
   id="path53"
   inkscape:connector-curvature="0"
   style="fill:url(#grad0-18);stroke:none;stroke-width:34;stroke-linecap:butt" />
				</g>
				<g
   id="shape14904-19"
   transform="translate(30.6502,-7.95915)">
					<title
   id="title56">Sheet.14904</title>
					<path
   d="m 22.47,110.46 h -6.43 a 0.201039,0.202633 -180 0 0 -0.158194,0.0831 L 14.42,113.08 a 0.194447,0.195989 0 0 1 -0.266953,0.0598 0.25377,0.255782 0 0 1 -0.05932,-0.0598 L 12.01,109.09 A 0.372416,0.375369 -180 0 0 11.512347,108.91394 0.382303,0.385335 -180 0 0 11.334378,109.09 L 9.33,115.11 a 0.191152,0.192667 0 0 1 -0.25377,0.0963 0.20763,0.209277 0 0 1 -0.09228,-0.093 L 7.28,111.1 A 0.375712,0.378691 -180 0 0 6.77246,110.94055 0.385599,0.388656 -180 0 0 6.614266,111.1 L 4.26,115.35 a 0.181264,0.182702 0 0 1 -0.158194,0.0963 L 0,115.45 v 1.49 h 4.98 a 0.154899,0.156127 -180 0 0 0.158194,-0.0963 L 6.6,114.13 a 0.194447,0.195989 0 0 1 0.260362,-0.0764 0.168082,0.169414 0 0 1 0.075801,0.0764 L 8.94,118.82 A 0.372416,0.375369 -180 0 0 9.417879,119.04256 0.365825,0.368725 -180 0 0 9.638692,118.82 L 11.75,112.51 a 0.177969,0.17938 0 0 1 0.227404,-0.10298 0.174673,0.176058 0 0 1 0.102167,0.10298 L 13.85,115.88 a 0.36912,0.372047 -180 0 0 0.491062,0.1528 0.385599,0.388656 -180 0 0 0.148307,-0.1528 L 16.73,112.07 a 0.18456,0.186024 0 0 1 0.154899,-0.0963 L 22.46,111.98 Z"
   class="st5"
   id="path58"
   inkscape:connector-curvature="0"
   style="fill:#ffffff;stroke:none;stroke-width:34;stroke-linecap:butt" />
				</g>
				<g
   id="shape14905-21"
   transform="translate(0,-12.2643)">
					<title
   id="title61">Sheet.14905</title>
					<path
   d="m 27.07,99.36 a 2.55418,2.57443 0 0 1 2.55,-2.57 h 1.82 v -1.36 a 1.86538,1.88017 0 0 1 1.87,-1.88 H 43.43 A 15.3152,15.4366 -180 0 0 27.84,80.29 15.7667,15.8917 -180 0 0 12.77,90.64 14.5275,14.6427 -180 0 0 0,104.74 14.7648,14.8819 -180 0 0 15.28,119.05 h 11.79 z"
   class="st6"
   id="path63"
   inkscape:connector-curvature="0"
   style="fill:url(#grad0-24);stroke:none;stroke-width:34;stroke-linecap:butt" />
				</g>
			</g>
		</g>
	</g>
</svg>

<svg xmlns="http://www.w3.org/2000/svg" xml:space="preserve" width="56.695" height="51.03" style="font-size:12px;overflow:visible;color-interpolation-filters:sRGB;fill-rule:evenodd;stroke-linecap:square;stroke-miterlimit:3" viewBox="0 0 56.695 51.03"><defs><linearGradient id="a" x1="0" x2="27.881" y1="86.811" y2="86.811" gradientTransform="scale(.9634 1.038)" gradientUnits="userSpaceOnUse"><stop offset="0" stop-color="#0078d4"/><stop offset="1" stop-color="#5ea0ef"/></linearGradient><linearGradient id="b" x1=".034" x2="10.289" y1="111.614" y2="111.614" gradientTransform="scale(1.02369 .97686)" gradientUnits="userSpaceOnUse"><stop offset="0" stop-color="#f78d1e"/><stop offset="1" stop-color="#faa21d"/></linearGradient><linearGradient id="c" x1="0" x2="41.037" y1="84.966" y2="84.966" gradientTransform="scale(1.05832 .9449)" gradientUnits="userSpaceOnUse"><stop offset=".225" stop-color="#5ea0ef"/><stop offset="1" stop-color="#0078d4"/></linearGradient></defs><g transform="translate(-34 -34.004)"><title>Page-1</title><g transform="translate(34 -34.016)"><title>MedTech Service.14896</title><title>Sheet.14897</title><g transform="translate(54.495 -17.058)"><title>Sheet.14898</title><path d="M0 118.28a.755.76-180 0 0 .755.76l.685.01a.755.76-180 0 0 .755-.76l.005-10.07a.755.76-180 0 0-.755-.76H.75a.755.76-180 0 0-.755.76z" style="fill:#0078d4;stroke:none;stroke-width:34;stroke-linecap:butt"/></g><g transform="translate(54.495 -10.706)"><title>Sheet.14899</title><path d="M0 118.28a.755.76-180 0 0 .755.76l.685.01a.755.76-180 0 0 .755-.76l.005-2.65a.755.76-180 0 0-.755-.76H.75a.755.76-180 0 0-.755.76z" style="fill:#0078d4;stroke:none;stroke-width:34;stroke-linecap:butt"/></g><g transform="translate(32.76)"><title>Sheet.14900</title><path d="M.55 82.46h17.01a.534.538 0 0 1 .534.538l-.004 3.992H.01V83a.534.538 0 0 1 .534-.538zm-.54 32.18h18.08v3.87a.527.531 0 0 1-.527.531L.53 119.05a.527.531 0 0 1-.527-.531L0 114.64Z" style="fill:#005ba1;stroke:none;stroke-width:34;stroke-linecap:butt"/></g><g transform="translate(28.396 -4.405)"><title>Sheet.14901</title><path d="M0 117.81a1.223 1.232-180 0 0 1.22 1.24h24.42a1.223 1.232-180 0 0 1.22-1.24V91.34a1.223 1.232-180 0 0-1.22-1.23H1.22A1.223 1.232-180 0 0 0 91.34Z" style="fill:url(#a);stroke:none;stroke-width:34;stroke-linecap:butt"/></g><g transform="translate(30.756 -6.8)"><title>Sheet.14902</title><path d="M0 118.02a1.022 1.03-180 0 0 1.02 1.03h20.36a1.022 1.03-180 0 0 1.02-1.03v-22.1a1.022 1.03-180 0 0-1.02-1.03H1.02A1.022 1.03-180 0 0 0 95.92Z" style="fill:#005ba1;stroke:none;stroke-width:34;stroke-linecap:butt"/></g><g transform="translate(36.671 -19.42)"><title>Sheet.14903</title><path d="M7.98 109.04a2.637 2.657-180 0 0-2.7 1.78 2.637 2.657-180 0 0-2.72-1.77c-2.44.21-2.56 2.64-2.52 3.57.03.67.16 2.76 5.21 6.4l.05.03.04-.04c5.05-3.65 5.17-5.8 5.19-6.49.03-.9-.11-3.3-2.55-3.48" style="fill:url(#b);stroke:none;stroke-width:34;stroke-linecap:butt"/></g><g transform="translate(30.65 -7.96)"><title>Sheet.14904</title><path d="M22.47 110.46h-6.43a.201.203-180 0 0-.158.083l-1.462 2.537a.194.196 0 0 1-.267.06.254.256 0 0 1-.06-.06l-2.083-3.99a.372.375-180 0 0-.498-.176.382.385-180 0 0-.178.176l-2.004 6.02a.191.193 0 0 1-.254.096.208.21 0 0 1-.092-.093L7.28 111.1a.376.379-180 0 0-.508-.16.386.389-180 0 0-.158.16l-2.354 4.25a.181.183 0 0 1-.158.096L0 115.45v1.49h4.98a.155.156-180 0 0 .158-.096L6.6 114.13a.194.196 0 0 1 .26-.076.168.17 0 0 1 .076.076l2.004 4.69a.372.375-180 0 0 .478.223.366.369-180 0 0 .22-.223l2.112-6.31a.178.18 0 0 1 .227-.103.175.176 0 0 1 .103.103l1.77 3.37a.37.372-180 0 0 .491.153.386.389-180 0 0 .148-.153l2.241-3.81a.185.186 0 0 1 .155-.096l5.575.006Z" style="fill:#fff;stroke:none;stroke-width:34;stroke-linecap:butt"/></g><g transform="translate(0 -12.264)"><title>Sheet.14905</title><path d="M27.07 99.36a2.554 2.574 0 0 1 2.55-2.57h1.82v-1.36a1.865 1.88 0 0 1 1.87-1.88h10.12a15.315 15.437-180 0 0-15.59-13.26 15.767 15.892-180 0 0-15.07 10.35A14.528 14.643-180 0 0 0 104.74a14.765 14.882-180 0 0 15.28 14.31h11.79z" style="fill:url(#c);stroke:none;stroke-width:34;stroke-linecap:butt"/></g></g></g></svg>
